X:1
T:Title
%%score { 1 | 2 }
L:1/8
Q:1/4=100
M:4/4
K:Bb
V:1 treble nm="Grand Piano"
V:2 bass 
V:1
 [DF]2 [DF]2 [DF][DF][DB][DF] | [EG]4 [GB]2 z2 | [DF]2 [DF]2 [DF][DF][DB][FB] | [Fc]6 z2 | %4
w: Carl~Converse * * * * *||||
 [DF]2 [DF]2 [DF][DF][DB][DF] | [EG]4 [GB]2 z2 | F2 F2 FFAc | [DB]6 z2 |] %8
w: ||||
V:2
 [B,,B,]2 [B,,B,]2 [B,,B,][B,,B,][B,,B,][B,,B,] | [E,B,]4 [E,B,]2 z2 | %2
 [B,,B,]2 [B,,B,]2 [B,,B,][B,,B,][B,,F,][D,F,] | [F,A,]6 z2 | %4
 [B,,B,]2 [B,,B,]2 [B,,B,][B,,B,][B,,B,][B,,B,] | [E,B,]4 [E,B,]2 z2 | %6
 [F,B,D]2 [F,B,D]2 [F,A,C][F,A,C][F,C][F,E] | [B,,F,]6 z2 |] %8

